build/assets/images/proyectos/logos/fichas/logo-rodilla.svg

<svg width="200" height="27" viewBox="0 0 200 27" fill="none" xmlns="http://www.w3.org/2000/svg">
<g clip-path="url(#clip0)">
<path fill-rule="evenodd" clip-rule="evenodd" d="M10.0001 10.8993H12.2334C15.0001 10.8993 16.4001 9.8993 16.4001 7.93263C16.4001 6.96596 16.0668 6.23263 15.4334 5.73263C14.8001 5.23263 13.9334 4.9993 12.8334 4.9993H10.0001V10.8993ZM26.2668 21.6993V25.966H18.6001L12.9001 14.9326H10.0334V21.6993H13.2001V25.966H0.0334473V21.6993H3.50011V4.9993H0.0334473V0.73263H15.2334C18.1001 0.73263 20.1668 1.46596 21.4001 2.8993C22.6668 4.33263 23.3001 5.96596 23.3001 7.7993C23.3001 10.666 21.8334 12.766 18.9334 14.066L23.0334 21.666H26.2668V21.6993ZM43.8668 4.96596C41.9334 4.96596 40.3001 5.6993 38.9334 7.13263C37.6001 8.5993 36.9334 10.6993 36.9334 13.4993C36.9334 15.966 37.6001 17.966 38.9334 19.4326C40.2668 20.9326 41.9001 21.666 43.8668 21.666C45.8001 21.666 47.4334 20.9326 48.8001 19.4993C50.1668 18.0326 50.8334 15.9326 50.8334 13.1993C50.8334 10.766 50.2001 8.76597 48.9001 7.23264C47.6001 5.73264 45.9334 4.96596 43.8668 4.96596ZM43.8668 0.365967C48.2001 0.365967 51.6334 1.63263 54.1334 4.13263C56.6334 6.63263 57.8668 9.6993 57.8668 13.3326C57.8668 16.966 56.6334 20.0326 54.1334 22.5326C51.6334 25.0326 48.2001 26.266 43.8668 26.266C39.3668 26.266 35.9001 24.966 33.5001 22.3993C31.1001 19.7993 29.8668 16.7993 29.8668 13.2993C29.8668 9.6993 31.1001 6.63263 33.5668 4.13263C36.0668 1.63263 39.5001 0.365967 43.8668 0.365967ZM73.5668 21.6993H75.1334C77.0334 21.6993 78.5668 21.466 79.6668 20.966C80.8001 20.466 81.7001 19.5993 82.3668 18.366C83.0334 17.0993 83.3668 15.466 83.3668 13.466C83.3668 11.5326 83.0334 9.8993 82.3334 8.56597C81.6668 7.23264 80.7334 6.2993 79.5668 5.7993C78.4001 5.2993 76.9334 5.03263 75.1334 5.03263H73.5668V21.6993ZM63.2001 25.966V21.6993H67.0334V4.9993H63.2001V0.73263H75.1334C77.6334 0.73263 79.6668 0.8993 81.2001 1.1993C82.7334 1.4993 84.2001 2.1993 85.6001 3.23263C87.0001 4.2993 88.1334 5.6993 88.9668 7.46596C89.8001 9.23263 90.2334 11.1993 90.2334 13.366C90.2334 15.1326 89.9334 16.7993 89.3334 18.3993C88.7334 19.966 88.0001 21.266 87.1334 22.2326C86.2668 23.1993 85.2001 23.966 84.0001 24.566C82.7668 25.1326 81.6668 25.4993 80.6334 25.666C79.6334 25.8326 78.0334 25.8993 75.9001 25.8993H63.2001V25.966ZM95.1334 25.966V21.6993H98.9668V4.9993H95.1334V0.73263H109.367V4.9993H105.5V21.6993H109.367V25.966H95.1334ZM116.367 25.966V21.6993H119.967V4.9993H116.367V0.73263H130.2V4.9993H126.533V21.6993H133.967V13.8993H138.867V25.9326H116.367V25.966ZM145.533 25.966V21.6993H149.133V4.9993H145.533V0.73263H159.367V4.9993H155.7V21.6993H163.133V13.8993H168.033V25.9326H145.533V25.966ZM188.6 13.6993L186.5 6.0993L184.233 13.6993H188.6ZM199.967 21.6993V25.966H187.567V21.6993H190.8L189.6 17.366H183.067L181.733 21.6993H185.1V25.966H173.933V21.6993H177.033L181.933 4.9993H178.567V0.73263H195.033V4.9993H191.633L196.933 21.6993H199.967Z" fill="white"/>
</g>
<defs>
<clipPath id="clip0">
<rect width="200" height="26.3333" fill="white" transform="translate(0 0.166016)"/>
</clipPath>
</defs>
</svg>

<svg width="200" height="27" fill="none" xmlns="http://www.w3.org/2000/svg"><g clip-path="url(#clip0)"><path fill-rule="evenodd" clip-rule="evenodd" d="M10 10.9h2.233c2.767 0 4.167-1 4.167-2.967 0-.967-.333-1.7-.967-2.2-.633-.5-1.5-.734-2.6-.734H10v5.9zm16.267 10.8v4.266H18.6l-5.7-11.033h-2.867v6.766H13.2v4.267H.033v-4.267H3.5V5H.033V.733h15.2c2.867 0 4.934.733 6.167 2.166 1.267 1.434 1.9 3.067 1.9 4.9 0 2.867-1.467 4.967-4.367 6.267l4.1 7.6h3.234v.033zm17.6-16.734c-1.934 0-3.567.733-4.934 2.167-1.333 1.466-2 3.566-2 6.366 0 2.467.667 4.467 2 5.934 1.334 1.5 2.967 2.233 4.934 2.233 1.933 0 3.566-.733 4.933-2.167 1.367-1.466 2.033-3.566 2.033-6.3 0-2.433-.633-4.433-1.933-5.966-1.3-1.5-2.967-2.267-5.033-2.267zm0-4.6c4.333 0 7.766 1.267 10.266 3.767s3.734 5.566 3.734 9.2c0 3.633-1.234 6.7-3.734 9.2-2.5 2.5-5.933 3.733-10.266 3.733-4.5 0-7.967-1.3-10.367-3.867-2.4-2.6-3.633-5.6-3.633-9.1 0-3.6 1.233-6.666 3.7-9.166 2.5-2.5 5.933-3.767 10.3-3.767zm29.7 21.333h1.566c1.9 0 3.434-.233 4.534-.733 1.133-.5 2.033-1.367 2.7-2.6.666-1.267 1-2.9 1-4.9 0-1.933-.334-3.567-1.034-4.9-.666-1.333-1.6-2.267-2.766-2.767-1.167-.5-2.634-.766-4.434-.766h-1.566v16.666zM63.2 25.966v-4.267h3.833V5H63.2V.733h11.933c2.5 0 4.534.166 6.067.466 1.533.3 3 1 4.4 2.034 1.4 1.066 2.533 2.466 3.367 4.233.833 1.767 1.266 3.733 1.266 5.9 0 1.767-.3 3.433-.9 5.033-.6 1.567-1.333 2.867-2.2 3.834-.866.966-1.933 1.733-3.133 2.333-1.233.567-2.333.933-3.367 1.1-1 .167-2.6.233-4.733.233H63.2v.067zm31.933 0v-4.267h3.834V5h-3.834V.733h14.234v4.266H105.5v16.7h3.867v4.267H95.133zm21.234 0v-4.267h3.6V5h-3.6V.733H130.2v4.266h-3.667v16.7h7.434v-7.8h4.9v12.034h-22.5v.033zm29.166 0v-4.267h3.6V5h-3.6V.733h13.834v4.266H155.7v16.7h7.433v-7.8h4.9v12.034h-22.5v.033zM188.6 13.699l-2.1-7.6-2.267 7.6h4.367zm11.367 8v4.267h-12.4v-4.267h3.233l-1.2-4.333h-6.533l-1.334 4.333h3.367v4.267h-11.167v-4.267h3.1l4.9-16.7h-3.366V.733h16.466v4.266h-3.4l5.3 16.7h3.034z" fill="#fff"/></g><defs><clipPath id="clip0"><path fill="#fff" transform="translate(0 .166)" d="M0 0h200v26.333H0z"/></clipPath></defs></svg>
